images/portal/4154.svg

<?xml version="1.0" standalone="no"?><!DOCTYPE svg PUBLIC "-//W3C//DTD SVG 1.1//EN" "http://www.w3.org/Graphics/SVG/1.1/DTD/svg11.dtd"><svg xmlns:xlink="http://www.w3.org/1999/xlink" version="1.1" class="highcharts-root" style="font-family:arial;font-size:12px;" xmlns="http://www.w3.org/2000/svg" width="485" height="415"><desc>Created with Highstock 5.0.14</desc><defs><clipPath id="highcharts-ygfqz1e-8"><rect x="0" y="0" width="389" height="250" fill="none"></rect></clipPath><clipPath id="highcharts-ygfqz1e-9"><rect x="0" y="0" width="389" height="250" fill="none"></rect></clipPath><clipPath id="highcharts-ygfqz1e-10"><rect x="0" y="0" width="389" height="250" fill="none"></rect></clipPath></defs><rect fill="#fbfbfb" class="highcharts-background" x="0" y="0" width="485" height="415" rx="0" ry="0"></rect><rect fill="none" class="highcharts-plot-background" x="43" y="100" width="389" height="250"></rect><g class="highcharts-pane-group"></g><g class="highcharts-grid highcharts-xaxis-grid "><path fill="none" class="highcharts-grid-line" d="M 77.5 100 L 77.5 350" opacity="1"></path><path fill="none" class="highcharts-grid-line" d="M 141.5 100 L 141.5 350" opacity="1"></path><path fill="none" class="highcharts-grid-line" d="M 205.5 100 L 205.5 350" opacity="1"></path><path fill="none" class="highcharts-grid-line" d="M 268.5 100 L 268.5 350" opacity="1"></path><path fill="none" class="highcharts-grid-line" d="M 332.5 100 L 332.5 350" opacity="1"></path><path fill="none" class="highcharts-grid-line" d="M 396.5 100 L 396.5 350" opacity="1"></path></g><g class="highcharts-grid highcharts-yaxis-grid "><path fill="none" stroke="#B9CFD7" stroke-width="0.5" class="highcharts-grid-line" d="M 43 350.25 L 432 350.25" opacity="1"></path><path fill="none" stroke="#B9CFD7" stroke-width="0.5" class="highcharts-grid-line" d="M 43 267.25 L 432 267.25" opacity="1"></path><path fill="none" stroke="#B9CFD7" stroke-width="0.5" class="highcharts-grid-line" d="M 43 183.25 L 432 183.25" opacity="1"></path><path fill="none" stroke="#B9CFD7" stroke-width="0.5" class="highcharts-grid-line" d="M 43 99.75 L 432 99.75" opacity="1"></path></g><g class="highcharts-grid highcharts-yaxis-grid "><path fill="none" stroke="#B9CFD7" stroke-width="0.5" class="highcharts-grid-line" d="M 43 350.25 L 432 350.25" opacity="1"></path><path fill="none" stroke="#B9CFD7" stroke-width="0.5" class="highcharts-grid-line" d="M 43 288.25 L 432 288.25" opacity="1"></path><path fill="none" stroke="#B9CFD7" stroke-width="0.5" class="highcharts-grid-line" d="M 43 225.25 L 432 225.25" opacity="1"></path><path fill="none" stroke="#B9CFD7" stroke-width="0.5" class="highcharts-grid-line" d="M 43 163.25 L 432 163.25" opacity="1"></path><path fill="none" stroke="#B9CFD7" stroke-width="0.5" class="highcharts-grid-line" d="M 43 99.75 L 432 99.75" opacity="1"></path></g><rect fill="none" class="highcharts-plot-border" x="43" y="100" width="389" height="250"></rect><g class="highcharts-axis highcharts-xaxis "><path fill="none" class="highcharts-tick" stroke="#FFFFFF" stroke-width="1" d="M 77.5 350 L 77.5 360" opacity="1"></path><path fill="none" class="highcharts-tick" stroke="#FFFFFF" stroke-width="1" d="M 141.5 350 L 141.5 360" opacity="1"></path><path fill="none" class="highcharts-tick" stroke="#FFFFFF" stroke-width="1" d="M 205.5 350 L 205.5 360" opacity="1"></path><path fill="none" class="highcharts-tick" stroke="#FFFFFF" stroke-width="1" d="M 268.5 350 L 268.5 360" opacity="1"></path><path fill="none" class="highcharts-tick" stroke="#FFFFFF" stroke-width="1" d="M 332.5 350 L 332.5 360" opacity="1"></path><path fill="none" class="highcharts-tick" stroke="#FFFFFF" stroke-width="1" d="M 396.5 350 L 396.5 360" opacity="1"></path><path fill="none" class="highcharts-axis-line" stroke="#B9CFD7" stroke-width="0.5" d="M 43 350.25 L 432 350.25"></path></g><g class="highcharts-axis highcharts-yaxis "><path fill="none" class="highcharts-axis-line" d="M 43 100 L 43 350"></path></g><g class="highcharts-axis highcharts-yaxis "><path fill="none" class="highcharts-axis-line" d="M 432 100 L 432 350"></path></g><g class="highcharts-series-group"><g class="highcharts-series highcharts-series-0 highcharts-column-series highcharts-color-undefined " transform="translate(43,100) scale(1 1)" clip-path="url(#highcharts-ygfqz1e-9)"><rect x="18" y="78" width="16" height="173" fill="#73b97c" class="highcharts-point"></rect><rect x="82" y="83" width="16" height="168" fill="#73b97c" class="highcharts-point"></rect><rect x="145" y="88" width="16" height="163" fill="#73b97c" class="highcharts-point"></rect><rect x="209" y="81" width="16" height="170" fill="#73b97c" class="highcharts-point"></rect><rect x="273" y="16" width="16" height="235" fill="#73b97c" class="highcharts-point"></rect><rect x="337" y="16" width="16" height="235" fill="#73b97c" class="highcharts-point"></rect></g><g class="highcharts-markers highcharts-series-0 highcharts-column-series highcharts-color-undefined " transform="translate(43,100) scale(1 1)" clip-path="none"></g><g class="highcharts-series highcharts-series-1 highcharts-column-series highcharts-color-undefined " transform="translate(43,100) scale(1 1)" clip-path="url(#highcharts-ygfqz1e-9)"><rect x="37" y="94" width="16" height="157" fill="#007A2F" class="highcharts-point"></rect><rect x="101" y="93" width="16" height="158" fill="#007A2F" class="highcharts-point"></rect><rect x="165" y="93" width="16" height="158" fill="#007A2F" class="highcharts-point"></rect><rect x="228" y="86" width="16" height="165" fill="#007A2F" class="highcharts-point"></rect><rect x="292" y="34" width="16" height="217" fill="#007A2F" class="highcharts-point"></rect><rect x="356" y="41" width="16" height="210" fill="#007A2F" class="highcharts-point"></rect></g><g class="highcharts-markers highcharts-series-1 highcharts-column-series highcharts-color-undefined " transform="translate(43,100) scale(1 1)" clip-path="none"></g><g class="highcharts-series highcharts-series-2 highcharts-line-series highcharts-color-undefined " transform="translate(43,100) scale(1 1)" clip-path="url(#highcharts-ygfqz1e-10)"><path fill="none" d="M 35.073770491801 24.03846153846149 L 98.844262295081 14.85148514851474 L 162.61475409836 7.653061224489761 L 226.38524590164 7.352941176470495 L 290.15573770492 19.50354609929076 L 353.9262295082 26.595744680851" class="highcharts-graph" stroke="#cd9c00" stroke-width="2" stroke-linejoin="round" stroke-linecap="round"></path></g><g class="highcharts-markers highcharts-series-2 highcharts-line-series highcharts-color-undefined " transform="translate(43,100) scale(1 1)" clip-path="none"><path fill="#cd9c00" d="M 39 24 A 4 4 0 1 1 38.99999800000017 23.996000000666665 Z" class="highcharts-point"></path><path fill="#cd9c00" d="M 102 15 A 4 4 0 1 1 101.99999800000016 14.996000000666664 Z" class="highcharts-point"></path><path fill="#cd9c00" d="M 166 8 A 4 4 0 1 1 165.99999800000018 7.9960000006666645 Z" class="highcharts-point"></path><path fill="#cd9c00" d="M 230 7 A 4 4 0 1 1 229.99999800000018 6.9960000006666645 Z" class="highcharts-point"></path><path fill="#cd9c00" d="M 294 20 A 4 4 0 1 1 293.9999980000002 19.996000000666665 Z" class="highcharts-point"></path><path fill="#cd9c00" d="M 357 27 A 4 4 0 1 1 356.9999980000002 26.996000000666665 Z" class="highcharts-point"></path></g></g><text x="10" text-anchor="start" class="highcharts-title" style="color:#000000;font-size:14px;font-weight:bold;fill:#000000;" y="21"><tspan>Bestand an Notwohnungen und ihre Belegung</tspan></text><g class="highcharts-legend" transform="translate(10,45)"><rect fill="none" class="highcharts-legend-box" rx="0" ry="0" x="0" y="0" width="379" height="39" visibility="visible"></rect><g><g><g class="highcharts-legend-item highcharts-column-series highcharts-color-undefined highcharts-series-0" transform="translate(8,3)"><text x="21" style="color:#333333;font-size:12px;font-weight:normal;cursor:pointer;fill:#333333;" text-anchor="start" y="15"><tspan>Notwohnungen</tspan></text><rect x="2" y="4" width="12" height="12" fill="#73b97c" class="highcharts-point"></rect></g><g class="highcharts-legend-item highcharts-column-series highcharts-color-undefined highcharts-series-1" transform="translate(129.6875,3)"><text x="21" y="15" style="color:#333333;font-size:12px;font-weight:normal;cursor:pointer;fill:#333333;" text-anchor="start"><tspan>Notwohnungen belegt</tspan></text><rect x="2" y="4" width="12" height="12" fill="#007A2F" class="highcharts-point"></rect></g><g class="highcharts-legend-item highcharts-line-series highcharts-color-undefined highcharts-series-2" transform="translate(8,17)"><path fill="none" d="M 0 11 L 16 11" class="highcharts-graph" stroke="#cd9c00" stroke-width="2"></path><path fill="#cd9c00" d="M 12 11 A 4 4 0 1 1 11.999998000000167 10.996000000666664 Z" class="highcharts-point"></path><text x="21" y="15" style="color:#333333;font-size:12px;font-weight:normal;cursor:pointer;fill:#333333;" text-anchor="start"><tspan>Belegungsquote (Anteil belegter Wohnungen in %, rechte Skala)</tspan></text></g></g></g></g><g class="highcharts-axis-labels highcharts-xaxis-labels "><text x="78.0737704918009" style="color:#000000;cursor:default;font-size:11px;fill:#000000;" text-anchor="middle" transform="translate(0,0)" y="369" opacity="1"><tspan>2011</tspan></text><text x="141.84426229508054" style="color:#000000;cursor:default;font-size:11px;fill:#000000;" text-anchor="middle" transform="translate(0,0)" y="369" opacity="1"><tspan>2012</tspan></text><text x="205.61475409836018" style="color:#000000;cursor:default;font-size:11px;fill:#000000;" text-anchor="middle" transform="translate(0,0)" y="369" opacity="1"><tspan>2013</tspan></text><text x="269.3852459016398" style="color:#000000;cursor:default;font-size:11px;fill:#000000;" text-anchor="middle" transform="translate(0,0)" y="369" opacity="1"><tspan>2014</tspan></text><text x="333.1557377049195" style="color:#000000;cursor:default;font-size:11px;fill:#000000;" text-anchor="middle" transform="translate(0,0)" y="369" opacity="1"><tspan>2015</tspan></text><text x="396.92622950819907" style="color:#000000;cursor:default;font-size:11px;fill:#000000;" text-anchor="middle" transform="translate(0,0)" y="369" opacity="1"><tspan>2016</tspan></text></g><g class="highcharts-axis-labels highcharts-yaxis-labels "><text x="28" style="color:#000000;cursor:default;font-size:11px;fill:#000000;" text-anchor="end" transform="translate(0,0)" y="355" opacity="1"><tspan>0</tspan></text><text x="28" style="color:#000000;cursor:default;font-size:11px;fill:#000000;" text-anchor="end" transform="translate(0,0)" y="271" opacity="1"><tspan>50</tspan></text><text x="28" style="color:#000000;cursor:default;font-size:11px;fill:#000000;" text-anchor="end" transform="translate(0,0)" y="188" opacity="1"><tspan>100</tspan></text><text x="28" style="color:#000000;cursor:default;font-size:11px;fill:#000000;" text-anchor="end" transform="translate(0,0)" y="105" opacity="1"><tspan>150</tspan></text></g><g class="highcharts-axis-labels highcharts-yaxis-labels "><text x="447" style="color:#000000;cursor:default;font-size:11px;fill:#000000;" text-anchor="start" transform="translate(0,0)" y="355" opacity="1"><tspan>0%</tspan></text><text x="447" style="color:#000000;cursor:default;font-size:11px;fill:#000000;" text-anchor="start" transform="translate(0,0)" y="292" opacity="1"><tspan>25%</tspan></text><text x="447" style="color:#000000;cursor:default;font-size:11px;fill:#000000;" text-anchor="start" transform="translate(0,0)" y="230" opacity="1"><tspan>50%</tspan></text><text x="447" style="color:#000000;cursor:default;font-size:11px;fill:#000000;" text-anchor="start" transform="translate(0,0)" y="167" opacity="1"><tspan>75%</tspan></text><text x="447" style="color:#000000;cursor:default;font-size:11px;fill:#000000;" text-anchor="start" transform="translate(0,0)" y="105" opacity="1"><tspan>100%</tspan></text></g><text x="10" class="highcharts-credits" text-anchor="start" style="cursor:default;color:#000000;font-size:10px;fill:#000000;" y="400"><tspan>Quelle: Statistisches Amt Basel-Stadt, Sozialhilfe Basel</tspan></text></svg>

<svg class="highcharts-root" xmlns="http://www.w3.org/2000/svg" width="485" height="415" font-family="arial" font-size="12">
    <defs>
        <clipPath id="a">
            <path fill="none" d="M0 0h389v250H0z"/>
        </clipPath>
        <clipPath id="b">
            <path fill="none" d="M0 0h389v250H0z"/>
        </clipPath>
    </defs>
    <rect fill="#fbfbfb" class="highcharts-background" width="485" height="415" rx="0" ry="0"/>
    <path fill="none" class="highcharts-plot-background" d="M43 100h389v250H43z"/>
    <g class="highcharts-grid highcharts-xaxis-grid">
        <path fill="none" class="highcharts-grid-line" d="M77.5 100v250m64-250v250m64-250v250m63-250v250m64-250v250m64-250v250"/>
    </g>
    <g class="highcharts-grid highcharts-yaxis-grid">
        <path fill="none" stroke="#B9CFD7" stroke-width=".5" class="highcharts-grid-line" d="M43 350.25h389m-389-83h389m-389-84h389M43 99.75h389"/>
    </g>
    <g class="highcharts-grid highcharts-yaxis-grid">
        <path fill="none" stroke="#B9CFD7" stroke-width=".5" class="highcharts-grid-line" d="M43 350.25h389m-389-62h389m-389-63h389m-389-62h389M43 99.75h389"/>
    </g>
    <path fill="none" class="highcharts-plot-border" d="M43 100h389v250H43z"/>
    <g class="highcharts-axis highcharts-xaxis">
        <path fill="none" class="highcharts-tick" stroke="#FFF" d="M77.5 350v10m64-10v10m64-10v10m63-10v10m64-10v10m64-10v10"/>
        <path fill="none" class="highcharts-axis-line" stroke="#B9CFD7" stroke-width=".5" d="M43 350.25h389"/>
    </g>
    <g class="highcharts-axis highcharts-yaxis">
        <path fill="none" class="highcharts-axis-line" d="M43 100v250"/>
    </g>
    <g class="highcharts-axis highcharts-yaxis">
        <path fill="none" class="highcharts-axis-line" d="M432 100v250"/>
    </g>
    <g class="highcharts-series-group">
        <g class="highcharts-series highcharts-series-0 highcharts-column-series highcharts-color-undefined" transform="translate(43 100)" clip-path="url(#a)">
            <path fill="#73b97c" class="highcharts-point" d="M18 78h16v173H18zm64 5h16v168H82zm63 5h16v163h-16zm64-7h16v170h-16zm64-65h16v235h-16zm64 0h16v235h-16z"/>
        </g>
        <g class="highcharts-series highcharts-series-1 highcharts-column-series highcharts-color-undefined" transform="translate(43 100)" clip-path="url(#a)">
            <path fill="#007A2F" class="highcharts-point" d="M37 94h16v157H37zm64-1h16v158h-16zm64 0h16v158h-16zm63-7h16v165h-16zm64-52h16v217h-16zm64 7h16v210h-16z"/>
        </g>
        <g class="highcharts-series highcharts-series-2 highcharts-line-series highcharts-color-undefined" transform="translate(43 100)" clip-path="url(#b)">
            <path fill="none" d="M35.074 24.038l63.77-9.187 63.77-7.198 63.771-.3 63.77 12.15 63.771 7.093" class="highcharts-graph" stroke="#cd9c00" stroke-width="2" stroke-linejoin="round" stroke-linecap="round"/>
        </g>
        <g class="highcharts-markers highcharts-series-2 highcharts-line-series highcharts-color-undefined">
            <path fill="#cd9c00" d="M82 124a4 4 0 1 1 0-.004zm63-9a4 4 0 1 1 0-.004zm64-7a4 4 0 1 1 0-.004zm64-1a4 4 0 1 1 0-.004zm64 13a4 4 0 1 1 0-.004zm63 7a4 4 0 1 1 0-.004z" class="highcharts-point"/>
        </g>
    </g>
    <text x="10" class="highcharts-title" y="21" color="#000" font-size="14" font-weight="700">
        <tspan>Bestand an Notwohnungen und ihre Belegung</tspan>
    </text>
    <g class="highcharts-legend" transform="translate(10 45)">
        <rect fill="none" class="highcharts-legend-box" rx="0" ry="0" width="379" height="39"/>
        <g class="highcharts-legend-item highcharts-column-series highcharts-color-undefined highcharts-series-0">
            <text x="21" y="15" color="#333" font-weight="400" cursor="pointer" fill="#333" transform="translate(8 3)">
                <tspan>Notwohnungen</tspan>
            </text>
            <path fill="#73b97c" class="highcharts-point" d="M10 7h12v12H10z"/>
        </g>
        <g class="highcharts-legend-item highcharts-column-series highcharts-color-undefined highcharts-series-1">
            <text x="21" y="15" color="#333" font-weight="400" cursor="pointer" fill="#333" transform="translate(129.688 3)">
                <tspan>Notwohnungen belegt</tspan>
            </text>
            <path fill="#007A2F" class="highcharts-point" d="M131.688 7h12v12h-12z"/>
        </g>
        <g class="highcharts-legend-item highcharts-line-series highcharts-color-undefined highcharts-series-2">
            <path fill="none" d="M8 28h16" class="highcharts-graph" stroke="#cd9c00" stroke-width="2"/>
            <path fill="#cd9c00" d="M20 28a4 4 0 1 1 0-.004z" class="highcharts-point"/>
            <text x="21" y="15" color="#333" font-weight="400" cursor="pointer" fill="#333" transform="translate(8 17)">
                <tspan>Belegungsquote (Anteil belegter Wohnungen in %, rechte Skala)</tspan>
            </text>
        </g>
    </g>
    <g class="highcharts-axis-labels highcharts-xaxis-labels" text-anchor="middle" color="#000" cursor="default" font-size="11">
        <text x="78.074" y="369">
            <tspan>2011</tspan>
        </text>
        <text x="141.844" y="369">
            <tspan>2012</tspan>
        </text>
        <text x="205.615" y="369">
            <tspan>2013</tspan>
        </text>
        <text x="269.385" y="369">
            <tspan>2014</tspan>
        </text>
        <text x="333.156" y="369">
            <tspan>2015</tspan>
        </text>
        <text x="396.926" y="369">
            <tspan>2016</tspan>
        </text>
    </g>
    <g class="highcharts-axis-labels highcharts-yaxis-labels" text-anchor="end" color="#000" cursor="default" font-size="11">
        <text x="28" y="355">
            <tspan>0</tspan>
        </text>
        <text x="28" y="271">
            <tspan>50</tspan>
        </text>
        <text x="28" y="188">
            <tspan>100</tspan>
        </text>
        <text x="28" y="105">
            <tspan>150</tspan>
        </text>
    </g>
    <g class="highcharts-axis-labels highcharts-yaxis-labels" color="#000" cursor="default" font-size="11">
        <text x="447" y="355">
            <tspan>0%</tspan>
        </text>
        <text x="447" y="292">
            <tspan>25%</tspan>
        </text>
        <text x="447" y="230">
            <tspan>50%</tspan>
        </text>
        <text x="447" y="167">
            <tspan>75%</tspan>
        </text>
        <text x="447" y="105">
            <tspan>100%</tspan>
        </text>
    </g>
    <text x="10" class="highcharts-credits" y="400" cursor="default" color="#000" font-size="10">
        <tspan>Quelle: Statistisches Amt Basel-Stadt, Sozialhilfe Basel</tspan>
    </text>
</svg>
